X: 15
T: Mother's Delight
Z: Erik-Fiddler
S: https://thesession.org/tunes/257#setting54403
R: reel
M: 4/4
L: 1/8
K: Gmix
|:A|Bdgd BGGB|Acfc AFFA|B/c/d gd BGGB|A/c/A FG AGGA|
~B2 gd BGGB|A/B/c fc AFFA|_B2 BA B/c/d fd|cAFG AGG:|
|:A|_B2 BA B2 GA|~_B3 d cBAB|Ggg^f ~g3 a|.b/a/g a^f defd|
gag^f d3 e|fdc_B AF ~F/F/F|Gg ~g/g/g dgbg|^fdcA BGG:|

%-------------------- TUNE SEPARATOR --------------------%

